X: 6897
T: Chattering Magpie, The
R: reel
M: 4/4
K: Gmajor
dc||BGAF DGG2|gfge fdcd|BG (3GGG DGFG|FGAB c2dc|
BGAF DGG2|gfge fdcd|BGAF DG (3GGG|FGAB c2Bc||
|:dg{a}gf (3ggg bg|dgbg fgaf|dg{a}gf (3ggg dg|1 bgaf gfef:|2 bgaf gedc||

